packages/bezier-icons/icons/call-pull.svg

<svg width="24" height="24" viewBox="0 0 24 24" fill="none" xmlns="http://www.w3.org/2000/svg">
<path fill-rule="evenodd" clip-rule="evenodd" d="M12.4142 8.36396C11.6686 7.61841 11.6348 6.4307 12.3125 5.64496L12.4142 5.53553L15.2426 2.70711C15.6331 2.31658 16.2663 2.31658 16.6568 2.70711C17.0474 3.09763 17.0474 3.7308 16.6568 4.12132L14.7782 6H19C20.5977 6 21.9036 7.24892 21.9949 8.82373L22 9V11.5C22 12.0523 21.5523 12.5 21 12.5C20.4477 12.5 20 12.0523 20 11.5V9C20 8.48716 19.6139 8.06449 19.1166 8.00673L19 8H14.8787L16.6568 9.77817C17.0474 10.1687 17.0474 10.8019 16.6568 11.1924C16.2663 11.5829 15.6331 11.5829 15.2426 11.1924L12.4142 8.36396ZM7.75088 16.2532C2.58593 11.0883 2.58593 6.56896 4.19998 4.95491C5.16841 3.98648 6.58425 3.72371 7.42807 4.30928C8.20282 4.82579 9.36494 6.28347 9.36493 7.53739C9.36493 8.29362 8.80701 8.94392 8.34719 9.47987C8.0219 9.85903 7.7457 10.181 7.75088 10.4427C7.76339 11.0743 8.45799 12.7177 9.8722 14.1319C11.2864 15.5461 12.9298 16.2407 13.5615 16.2532C13.8232 16.2584 14.1451 15.9822 14.5243 15.6569C15.0602 15.1971 15.7105 14.6392 16.4667 14.6392C17.7207 14.6392 19.1783 15.8013 19.6948 16.5761C20.2804 17.4199 20.0176 18.8357 19.0492 19.8042C17.4352 21.4182 12.9158 21.4182 7.75088 16.2532Z" fill="#313234"/>
</svg>

<svg xmlns="http://www.w3.org/2000/svg" width="24" height="24" fill="none" viewBox="0 0 24 24"><path fill="#313234" fill-rule="evenodd" d="M12.414 8.364a2 2 0 0 1-.101-2.719l.101-.11 2.829-2.828a1 1 0 1 1 1.414 1.414L14.778 6H19a3 3 0 0 1 2.995 2.824L22 9v2.5a1 1 0 1 1-2 0V9a1 1 0 0 0-.883-.993L19 8h-4.121l1.778 1.778a1 1 0 1 1-1.414 1.414zm-4.663 7.89C2.586 11.087 2.586 6.568 4.2 4.953c.968-.968 2.384-1.23 3.228-.645.775.517 1.937 1.974 1.937 3.228 0 .757-.558 1.407-1.018 1.943-.325.379-.601.701-.596.963.012.631.707 2.275 2.121 3.689s3.058 2.109 3.69 2.121c.261.005.583-.27.962-.596.536-.46 1.187-1.018 1.943-1.018 1.254 0 2.711 1.162 3.228 1.937.585.844.323 2.26-.646 3.228-1.614 1.614-6.133 1.614-11.298-3.55" clip-rule="evenodd"/></svg>
